src/client/public/static/background-waves.svg

<svg width="960" height="540" xmlns="http://www.w3.org/2000/svg">
  <path fill="#1b1b1e" d="M0 0h960v540H0z"/>
  <path d="m0 215 16-2c16-2 48-6 80 0s64 22 96 40.5 64 39.5 96 28.3c32-11.1 64-54.5 96-59.3 32-4.8 64 28.8 96 49.8 32 21 64 29.4 96 13.2s64-56.8 96-61.5c32-4.7 64 26.7 96 49.2 32 22.5 64 36.1 96 36 32-.2 64-14.2 80-21.2l16-7V0H0Z" fill="#212125"/>
  <path d="m0 274 16-6.7c16-6.6 48-20 80-41.5s64-51.1 96-47.8c32 3.3 64 39.7 96 58.3 32 18.7 64 19.7 96 7 32-12.6 64-39 96-47.5s64 .9 96 9.5c32 8.7 64 16.7 96 3.5 32-13.1 64-47.5 96-60.8 32-13.3 64-5.7 96 1.3s64 13.4 80 16.5l16 3.2V0H0Z" fill="#4a3f4d"/>
  <path d="m0 125 16-1.3c16-1.4 48-4 80-2.7 32 1.3 64 6.7 96 21.3 32 14.7 64 38.7 96 40 32 1.4 64-20 96-24.8 32-4.8 64 6.8 96 2.2 32-4.7 64-25.7 96-37.4 32-11.6 64-14 96 .7s64 46.3 96 64c32 17.7 64 21.3 96 16 32-5.3 64-19.7 80-26.8l16-7.2V0H0Z" fill="#815c6e"/>
  <path d="m0 89 16-.8c16-.9 48-2.5 80 .1 32 2.7 64 9.7 96 16.9 32 7.1 64 14.5 96 8s64-26.9 96-20.7c32 6.2 64 38.8 96 52.5 32 13.7 64 8.3 96-1.8 32-10.2 64-25.2 96-24.2s64 18 96 28 64 13 96 1.2c32-11.9 64-38.5 80-51.9L960 83V0H0Z" fill="#bc7c82"/>
  <path d="m0 21 16-.3c16-.4 48-1 80 12.1C128 46 160 73 192 79.5s64-7.5 96-18.3c32-10.9 64-18.5 96-12s64 27.1 96 31.6 64-7.1 96-15C608 58 640 54 672 61c32 7 64 25 96 24.2 32-.9 64-20.5 96-31.9C896 42 928 39 944 37.5l16-1.5V0H0Z" fill="#efa48b"/>
</svg>

<svg id="visual" viewBox="0 0 960 540" width="960" height="540" xmlns="http://www.w3.org/2000/svg" xmlns:xlink="http://www.w3.org/1999/xlink" version="1.1"><rect x="0" y="0" width="960" height="540" fill="#1b1b1e"></rect><path d="M0 215L16 213C32 211 64 207 96 213C128 219 160 235 192 253.5C224 272 256 293 288 281.8C320 270.7 352 227.3 384 222.5C416 217.7 448 251.3 480 272.3C512 293.3 544 301.7 576 285.5C608 269.3 640 228.7 672 224C704 219.3 736 250.7 768 273.2C800 295.7 832 309.3 864 309.2C896 309 928 295 944 288L960 281L960 0L944 0C928 0 896 0 864 0C832 0 800 0 768 0C736 0 704 0 672 0C640 0 608 0 576 0C544 0 512 0 480 0C448 0 416 0 384 0C352 0 320 0 288 0C256 0 224 0 192 0C160 0 128 0 96 0C64 0 32 0 16 0L0 0Z" fill="#212125"></path><path d="M0 274L16 267.3C32 260.7 64 247.3 96 225.8C128 204.3 160 174.7 192 178C224 181.3 256 217.7 288 236.3C320 255 352 256 384 243.3C416 230.7 448 204.3 480 195.8C512 187.3 544 196.7 576 205.3C608 214 640 222 672 208.8C704 195.7 736 161.3 768 148C800 134.7 832 142.3 864 149.3C896 156.3 928 162.7 944 165.8L960 169L960 0L944 0C928 0 896 0 864 0C832 0 800 0 768 0C736 0 704 0 672 0C640 0 608 0 576 0C544 0 512 0 480 0C448 0 416 0 384 0C352 0 320 0 288 0C256 0 224 0 192 0C160 0 128 0 96 0C64 0 32 0 16 0L0 0Z" fill="#4a3f4d"></path><path d="M0 125L16 123.7C32 122.3 64 119.7 96 121C128 122.3 160 127.7 192 142.3C224 157 256 181 288 182.3C320 183.7 352 162.3 384 157.5C416 152.7 448 164.3 480 159.7C512 155 544 134 576 122.3C608 110.7 640 108.3 672 123C704 137.7 736 169.3 768 187C800 204.7 832 208.3 864 203C896 197.7 928 183.3 944 176.2L960 169L960 0L944 0C928 0 896 0 864 0C832 0 800 0 768 0C736 0 704 0 672 0C640 0 608 0 576 0C544 0 512 0 480 0C448 0 416 0 384 0C352 0 320 0 288 0C256 0 224 0 192 0C160 0 128 0 96 0C64 0 32 0 16 0L0 0Z" fill="#815c6e"></path><path d="M0 89L16 88.2C32 87.3 64 85.7 96 88.3C128 91 160 98 192 105.2C224 112.3 256 119.7 288 113.2C320 106.7 352 86.3 384 92.5C416 98.7 448 131.3 480 145C512 158.7 544 153.3 576 143.2C608 133 640 118 672 119C704 120 736 137 768 147C800 157 832 160 864 148.2C896 136.3 928 109.7 944 96.3L960 83L960 0L944 0C928 0 896 0 864 0C832 0 800 0 768 0C736 0 704 0 672 0C640 0 608 0 576 0C544 0 512 0 480 0C448 0 416 0 384 0C352 0 320 0 288 0C256 0 224 0 192 0C160 0 128 0 96 0C64 0 32 0 16 0L0 0Z" fill="#bc7c82"></path><path d="M0 21L16 20.7C32 20.3 64 19.7 96 32.8C128 46 160 73 192 79.5C224 86 256 72 288 61.2C320 50.3 352 42.7 384 49.2C416 55.7 448 76.3 480 80.8C512 85.3 544 73.7 576 65.8C608 58 640 54 672 61C704 68 736 86 768 85.2C800 84.3 832 64.7 864 53.3C896 42 928 39 944 37.5L960 36L960 0L944 0C928 0 896 0 864 0C832 0 800 0 768 0C736 0 704 0 672 0C640 0 608 0 576 0C544 0 512 0 480 0C448 0 416 0 384 0C352 0 320 0 288 0C256 0 224 0 192 0C160 0 128 0 96 0C64 0 32 0 16 0L0 0Z" fill="#efa48b"></path></svg>
